icons/contact_lenses_fill.svg

<svg width="48" height="48" viewBox="0 0 48 48" fill="none" xmlns="http://www.w3.org/2000/svg">
<path fill-rule="evenodd" clip-rule="evenodd" d="M34.9847 9.68621C34.9949 9.62455 35 9.56247 35 9.5C35 9.47225 34.999 9.44457 34.997 9.41697C34.999 9.3449 35 9.27256 35 9.19995H34.9601C34.4818 7.40741 29.7575 6 24 6C18.2425 6 13.5182 7.40741 13.0399 9.19995H13C13 9.27256 13.001 9.3449 13.003 9.41697C13.001 9.44457 13 9.47225 13 9.5C13 9.56247 13.0051 9.62455 13.0153 9.68621C13.3262 14.6058 18.3298 18.2 24 18.2C29.6702 18.2 34.6738 14.6058 34.9847 9.68621ZM33.1041 9.11164C33.1041 9.11164 33.1012 9.11677 33.0921 9.12679C33.099 9.11662 33.1041 9.11164 33.1041 9.11164ZM32.5603 9.5C32.2332 9.32063 31.7757 9.12313 31.1718 8.93098C29.4259 8.37548 26.89 8 24 8C21.11 8 18.5741 8.37548 16.8282 8.93098C16.2243 9.12313 15.7668 9.32063 15.4397 9.5C15.7668 9.67937 16.2243 9.87687 16.8282 10.069C18.5741 10.6245 21.11 11 24 11C26.89 11 29.4259 10.6245 31.1718 10.069C31.7757 9.87687 32.2332 9.67938 32.5603 9.5ZM14.8959 9.11164C14.8959 9.11164 14.901 9.11662 14.9079 9.1268C14.8988 9.11676 14.8959 9.11164 14.8959 9.11164ZM32.3581 11.7755C30.3407 12.525 27.3447 13 24 13C20.6553 13 17.6593 12.525 15.6419 11.7755C16.936 14.2931 20.0728 16.2 24 16.2C27.9272 16.2 31.064 14.2931 32.3581 11.7755Z" fill="black"/>
<path d="M33.5413 25.015L34 24.5527C34 24.5527 28.3999 10.7237 15.1636 24.0659L6 33.3026V41.9999L16.6909 42L23.4852 35.1514C22.6623 33.861 22.3429 32.495 22.4572 31.162C22.6165 29.3037 23.6067 27.639 24.9803 26.4328C27.1664 24.513 30.5329 23.6059 33.5413 25.015Z" fill="black"/>
<path d="M32.0009 26.5678C29.986 25.9493 27.8305 26.5915 26.3 27.9356C25.2369 28.8691 24.557 30.0829 24.4499 31.3328C24.3866 32.0708 24.5185 32.8687 24.9428 33.6821L32.0009 26.5678Z" fill="black"/>
</svg>

<svg
  xmlns="http://www.w3.org/2000/svg"
  width="24"
  height="24"
  viewBox="0 0 24 24"
  fill="none"
  stroke="currentColor"
  stroke-width="2"
  stroke-linecap="round"
  stroke-linejoin="round"
>
  <path
    fill-rule="evenodd"
    d="M34.985 9.686a1.1 1.1 0 0 0 .012-.269Q35 9.309 35 9.2h-.04C34.482 7.407 29.757 6 24 6S13.518 7.407 13.04 9.2H13q0 .11.003.217a1.2 1.2 0 0 0 .012.27C13.326 14.605 18.33 18.2 24 18.2s10.674-3.594 10.985-8.514m-1.88-.574-.013.015zm-.545.388a8 8 0 0 0-1.388-.569C29.426 8.375 26.89 8 24 8s-5.426.375-7.172.931a8 8 0 0 0-1.388.569c.327.18.784.377 1.388.569C18.574 10.624 21.11 11 24 11s5.426-.376 7.172-.931A8 8 0 0 0 32.56 9.5m-17.664-.388.012.015q-.013-.015-.012-.015m17.462 2.663C30.341 12.526 27.345 13 24 13s-6.34-.475-8.358-1.225C16.936 14.293 20.072 16.2 24 16.2c3.927 0 7.064-1.907 8.358-4.424"
    clip-rule="evenodd"
  />
  <path d="m33.541 25.015.459-.462s-5.6-13.83-18.836-.487L6 33.303V42h10.69l6.795-6.849c-.823-1.29-1.142-2.656-1.028-3.989.16-1.858 1.15-3.523 2.523-4.73 2.186-1.919 5.553-2.826 8.561-1.417" />
  <path d="M32 26.568c-2.014-.619-4.17.023-5.7 1.368-1.063.933-1.743 2.147-1.85 3.397-.063.738.069 1.536.493 2.35z" />
</svg>
